!! 00000] TT[WS
!!!OTL: Yin niusi
!!!ARE: Asia, China,ÿShanxi Heshun
!! Ethnic Group: Han
!! WI, 119 (2)
!!!SCT: J0141
!!!YEM: Copyright 1995, estate of Helmut Schaffrath.
**kern
*ICvox
*Ivox
*M2/4
*k[b-]
*F:
{8f
4f
8g
=1
8a
8b-
8a
8g
=2
8f
8d
8a
8g
=3
2f}
=4
{8f
4f
8g
=5
8a
8b-
8a
8g
=6
8f
8d
8a
8g
=7
2f}
=8
{8d
8d
8f
8c
=9
2d
=10
8f
8d
8a
8g
=11
2f}
=12
{8cc
8dd
4ff
=13
8dd
8ff
8dd
8cc
=14
8a
4g
8a
=15
8cc
8dd
8a
8g
=16
2f}
==
!!!AGN: Xiaodiao. Qingge
!!!ONB: ESAC (Essen Associative Code) Database: CHINA
!!!AMT: simple duple
!!!AIN: vox
!!!EED: Helmut Schaffrath
!!!EEV: 1.0
*-
